X: 22614
T: Lady's Cloak, The
R: jig
M: 6/8
K: Dmajor
|:agf gfe|dfe d2A|~G3 ~G3|EFG A2f|
agf gfe|dfe d2A|Bed cBc|1 d3 d2f:|2 d3 d2g||
|:~a3 ~f3|fdf agf|~g3 ~e3|def ~g3|
~a3 ~f3|fdf a3|Bed cBc|1 d3 d2g:|2 d3 d2f||

